X:516
T:Missing Vassar
C:Ricky Skaggs & Kentucky Thunder from Instrumentals 
N:Tabledited by Larry Tanner
L:1/8
Q:1/4=200
M:4/4
K:A
z7/1E | "B"FA BF AB FA | BF AB d^d =d^d | FA BF AB FA | BF AB (3=FEz DE | FA BF AB FA | 
BF AB d^d B=d | (3=fed e^f d^d BA | (3=F^FA (3=FED "E"E3E | "B"FA BF AB FA | BF AB d^d =d^d | 
FA BF AB FA | BF AB "E"FE DE | "B"FA BF AB FA | BF AB d^d B=d | (3=fed e^f d^d BA | 
(3"F#"=F^FA (3=FED "B"B,2 D2 | "E"E2 FG B2 GB | dc BG (3ABA GE | AG ED B,E DB, | 
A,G,2E FA BA | "B"d^d BF AB =d^d | fa gf (3efe ^dB | e^d BA FA BA | (3=F^FA (3=FED z2 B,A, | 
"E"DB, A,2 DB, G,2 | DB, A,2 DB, G,E | FA BF AB de | ag2f2f a^a | "F#"f2 df fc ef | 
(3=CBA F4 ee | ^de ce Be A^A | F4 "E"[E4B,4] | z8 | 


